weather-windy-variant.svg

<svg fill="currentColor" viewBox="0 0 24 24"><path d="m6 6 .69.06A5.5 5.5 0 0 1 12 2a5.5 5.5 0 0 1 5.5 5.5l-.08.95c.46-.29 1-.45 1.58-.45a3 3 0 0 1 3 3 3 3 0 0 1-3 3H6a4 4 0 0 1-4-4 4 4 0 0 1 4-4m0 2a2 2 0 0 0-2 2 2 2 0 0 0 2 2h13a1 1 0 0 0 1-1 1 1 0 0 0-1-1h-3.5V7.5A3.5 3.5 0 0 0 12 4a3.5 3.5 0 0 0-3.5 3.5V8zm12 10H4a1 1 0 0 1-1-1 1 1 0 0 1 1-1h14a3 3 0 0 1 3 3 3 3 0 0 1-3 3c-.83 0-1.58-.34-2.12-.88-.38-.39-.38-1.02 0-1.41a.996.996 0 0 1 1.41 0c.18.18.43.29.71.29a1 1 0 0 0 1-1 1 1 0 0 0-1-1"/></svg>

<svg  viewBox="0 0 24 24" fill="currentColor"><path  d="M6,6L6.69,6.06C7.32,3.72 9.46,2 12,2A5.5,5.5 0 0,1 17.5,7.5L17.42,8.45C17.88,8.16 18.42,8 19,8A3,3 0 0,1 22,11A3,3 0 0,1 19,14H6A4,4 0 0,1 2,10A4,4 0 0,1 6,6M6,8A2,2 0 0,0 4,10A2,2 0 0,0 6,12H19A1,1 0 0,0 20,11A1,1 0 0,0 19,10H15.5V7.5A3.5,3.5 0 0,0 12,4A3.5,3.5 0 0,0 8.5,7.5V8H6M18,18H4A1,1 0 0,1 3,17A1,1 0 0,1 4,16H18A3,3 0 0,1 21,19A3,3 0 0,1 18,22C17.17,22 16.42,21.66 15.88,21.12C15.5,20.73 15.5,20.1 15.88,19.71C16.27,19.32 16.9,19.32 17.29,19.71C17.47,19.89 17.72,20 18,20A1,1 0 0,0 19,19A1,1 0 0,0 18,18Z"/></svg>
